packages/core/src/svgs/azero.svg

<svg width="24" height="24" viewBox="0 0 24 24" fill="none" xmlns="http://www.w3.org/2000/svg">
<g clip-path="url(#clip0_31_6504)">
<path d="M24 0H0V24H24V0Z" fill="#F0F3FA"/>
<path fill-rule="evenodd" clip-rule="evenodd" d="M10.8517 5.23161L8.689 10.2859H5.71622C5.63629 10.2859 5.57153 10.3515 5.57153 10.4322V11.8539C5.57153 11.9347 5.63629 12.0002 5.71622 12.0002H7.95546L5.6599 17.3649C5.61816 17.4624 5.68819 17.5716 5.7925 17.5716H7.54035C7.59855 17.5716 7.65109 17.5361 7.67368 17.4813L11.9805 7.05209L16.2292 17.4807C16.2516 17.5358 16.3043 17.5716 16.3627 17.5716H18.2082C18.3123 17.5716 18.3823 17.4627 18.3409 17.3652L16.062 12.0002H18.284C18.3639 12.0002 18.4287 11.9347 18.4287 11.8539V10.4322C18.4287 10.3515 18.3639 10.2859 18.284 10.2859H15.3339L13.1871 5.232C13.1642 5.178 13.1121 5.14307 13.0544 5.14307H10.9843C10.9268 5.14307 10.8748 5.17782 10.8517 5.23161Z" fill="#1D242C"/>
</g>
<defs>
<clipPath id="clip0_31_6504">
<rect width="24" height="24" fill="white"/>
</clipPath>
</defs>
</svg>

<svg xmlns="http://www.w3.org/2000/svg" width="24" height="24" fill="none" viewBox="0 0 24 24"><g clip-path="url(#a)"><path fill="#F0F3FA" d="M24 0H0v24h24z"/><path fill="#1D242C" fill-rule="evenodd" d="m10.852 5.232-2.163 5.054H5.716a.146.146 0 0 0-.144.146v1.422c0 .08.064.146.144.146h2.24L5.66 17.365a.147.147 0 0 0 .133.207H7.54c.059 0 .111-.036.134-.09l4.306-10.43 4.25 10.429c.022.055.074.09.133.09h1.845a.147.147 0 0 0 .133-.206L16.062 12h2.222c.08 0 .145-.065.145-.146v-1.422a.146.146 0 0 0-.145-.146h-2.95l-2.147-5.054a.14.14 0 0 0-.133-.089h-2.07a.145.145 0 0 0-.132.089" clip-rule="evenodd"/></g><defs><clipPath id="a"><path fill="#fff" d="M0 0h24v24H0z"/></clipPath></defs></svg>
